X:1
T:Sto core mio
T:Sto core mio
T:Orlande de Lassus
C:Orlande de Lassus
%%score [ 1 2 [ 3 4 ] ]
L:1/8
Q:1/4=68
M:2/2
K:F
V:1 treble nm="Superius" snm="S"
V:2 treble nm="Altus" snm="A"
V:3 treble-8 nm="Tenor 1" snm="T 1"
V:4 treble-8 nm="Tenor 2" snm="T 2"
V:1
 z =BBc d2 dd | cc =B2 c2 B2- | BAG G2 F G2 :| z BB d2 c d2 | d2 d c2 c =B2 | c4 z ccc | %6
w: Sto co- re mi- o,- sto|co- re mio se fos-|* se di dia- man- te,|1)sa- ria spez- za- to|per tan- to do- lo-|re, quan- to ne|
w: ||||||
w: |||2)e ben ch'af- flit- to|sia piu ch'al- tr'a- man-|te, ten- ga do-|
w: |||3)ma quan- to piu pa-|ti- sce piu con- stan-|te, so- fre'il do-|
w: ||||||
w: |||4)ma voi don- na cru-|del vo- le- te'an- cho-|ra, par ma- gior|
 B2 Ad cc=Bd | ^c2 d2 =B =c2 B | c4 z ccc | B2 Ad cc=Bd | ^c2 d2 =B =c2 B | c8 |] %12
w: pro- ve, quan- to ne pro- v'et|sent' a tut- te l'ho-|re, quan- to ne|pro- ve, quan- to ne pro- v'et|sent' a tut- te l'ho-|re.|
w: * * * scon * * *||||||
w: len- te- e con- so- la- te'il|co- * * * *|re, pur non la|man- ca spir- to ve vi- *|go- * * * *|re.|
w: lor,- so- fre'il do- lor se ben|ma- * gio- * *|re, di quel ch'io|pro- v'e sen- tia tut- te ll'ho-||re.|
w: se- gno di mia fe- de'ogn- ho-||ra, ve- der- mi|tor- men- tar pri- ma ch'io mo-||ra.|
w: ||||||
V:2
 z GGG B2 BB | GA G2 G2 G2 | F2 D_E D2 D2 :| z GGG A2 F2 | B2 B G2 A G2 | E2 z E AA G2- | %6
w: Sto co- re mi- o, sto|co- re mio se fos-|se di dia- man- te,|1)sa- ria spez- za- to|per tan- to do- lo-|re, quan- to ne pro-|
w: |||2)e ben ch'af- flit- to|sia piu ch'al- tr'a- man-|te, ten- ga do- len-|
w: |||3)ma quan- to piu pa-|ti- sce piu con- stan-|te, so- fre'il do- lor|
w: ||||||
w: |||4)ma voi don- na cru-|del vo- le- te'an- cho-|ra, par ma- gior se-|
 G2 DA AGGG | A2 A2 GF G2 | E2 z E AA G2- | G2 DA AGGG | A2 A2 GF G2 | G8 |] %12
w: * ve, quan- to ne pro- v'et|sent' a tut- te l'ho-|re, quan- to ne pro-|* ve, quan- to ne pro- v'et|sent' a tut- te l'ho-|re.|
w: * te, ten- ga do- len- t'e|scon- so- la- to'il co-|re, pur- non la man-|* ca, pur non la man- ca|spir- to ne vi- go-|re.|
w: * so- fre'il do- lor se ben|fos- se ma- gio- *|re, di quel ch'io pro-|* v'e sen- tia tut- te l'ho-|* re, tut- te l'ho-|re.|
w: * se- gno di mia fe- de'ogn-|hor- * * * *|ra, ve- der- mi tor-|* tor- men- tar pri- ma ch'io|mo- ra, ch'io mo- *|ra.-|
w: ||||||
V:3
 z dde f2 fg | ef d2 _e2 d2- | dcBc A2 =B2 :| z ddd e2 d2 | f2 f e2 f d2 | c2 g2 ff e2 | %6
w: Sto co- re mi- o, sto|co- re mio se fos|* se di dia- man- te,|1)sa- ria spez- za- to|per tan- to do- lo-|re, quan- to ne pro-|
w: |||2)e ben ch'af- flit- to|sia piu ch'al- tr'a- man-|te, ten- ga do- len-|
w: |||3)ma quan- to piu pa-|ti- sce piu con- stan-|te, so- fre'il do- lor|
w: ||||||
w: |||4)ma voi don- na cru-|del vo- le- te'an- cho-|ra, per ma- gior se|
 d2 f2 eedd | e2 f2 dc d2 | c2 g2 ff e2 | d2 f2 eedd | e2 f2 dc d2 | e8 |] %12
w: ve, quan- to ne pro- v'et|sent' a tut- te l'ho-|re, quan- to ne pro-|ve, quan- to ne pro- v'et|sent' a tut- te l'ho-|re.|
w: te, ten- ga do- len- t'e|scon- so- la- to'il co-|re, pur non la man-|ca, pur non la man- ca|spir- to ne vi- go-|re.|
w: so- fre'l do- lor, se ben|fos- se ma- gio- *|re, di quel ch'io pro-|v'e sen- tia tut- te l'ho-|* re, tut- te l'ho-|re.|
w: gno di mia fe- d'ogn- ho-||ra, ve- der- mi tor-||||
w: |||men- tar pri- ma ch'io mo-||ra.|
V:4
 z GGc B2 BG | cF G2 C2 G>A | BFGC D2 G2 :| z GGB A2 D2 | B,2 B, C2 F G2 | C2 C2 FF c2 | %6
w: Sto co- re mi- o, sto|co- re mio se fos- *|* se di dia- man- te,|1)sa- ria spez- za- to|per tan- to do- lo-|re, quan- to ne pro-|
w: |||2)e ben ch'af- flit- to|sia piu ch'al- tr'a- man-|te, ten- ga do- len-|
w: |||3)ma- quan- to piu pa-|ti- sce piu con- stan-|te, so- fre'il do- lor|
w: |||4)ma voi don- na cru-|del vo- le- te'an- cho-|ra, per ma- gior se-|
 G2 z D AcGB |"^-natural" A2 D2 GA G2 | C2 C2 FF c2 |"^-natural" G2 z D AcGB | A2 D2 GA G2 | C8 |] %12
w: ve, quan- to ne pro- v'et|sent' a tut- te l'ho-|re, quan- to ne pro-|ve, quan- to ne pro- v'et|sent' a tut- te l'ho-|re.|
w: te, ten- ga do- len- t'e|scon- so- la- to'il co-|re, pur non la man-|ca, pur non la man- ca|spir- to ne vi- go-|re.|
w: se se ben fos- se ma-|gio- * * * *|re, di quel ch'io pro-|v'e sen- tia tut- te l'ho-||re.|
w: gno di mi- a fe- de''ogn-|hor- ra, fe- de'ogn- hor-|ra, ve- der- mi tor-|men- tar- pri- ma ch'io mo-||ra.|

